lib/logo_tmp/nrk-logo-nrk-klassisk-title-below-on-dark.svg

<svg width="71" height="35" viewBox="0 0 71 35" fill="none" xmlns="http://www.w3.org/2000/svg">
<path d="M0 14.3333V0.334605H4.59339V14.3333H0ZM10.8428 2.56258L13.4844 14.3333H8.45737L5.30307 0.334605H8.12254C8.76907 0.326214 9.39641 0.554123 9.88691 0.975455C10.3782 1.37911 10.7158 1.93948 10.8428 2.56258ZM14.1744 14.3333V0.334605H18.7678V14.3333H14.1744ZM22.2372 5.65812C21.7422 5.66294 21.2552 5.53343 20.828 5.28346C20.4064 5.03981 20.0563 4.68962 19.8127 4.26803C19.5624 3.84072 19.4329 3.35355 19.4378 2.85837C19.4321 2.3662 19.5618 1.88194 19.8127 1.4585C20.0589 1.04149 20.4086 0.695109 20.828 0.452939C21.2553 0.203253 21.7423 0.073767 22.2372 0.0782812C22.7292 0.0729823 23.2133 0.202584 23.6369 0.452939C24.0521 0.697232 24.3981 1.04332 24.6424 1.4585C24.893 1.88206 25.0226 2.36624 25.0172 2.85837C25.0218 3.35352 24.8923 3.8406 24.6424 4.26803C24.4007 4.68777 24.0542 5.03766 23.6369 5.28346C23.2133 5.53431 22.7289 5.66394 22.2366 5.65812H22.2372ZM25.7269 14.3333V0.334605H30.3207V14.3333H25.7269ZM36.136 7.98461C36.1489 7.99819 36.2475 8.1592 36.4317 8.46765C36.6159 8.7761 36.8558 9.17046 37.1513 9.65067C37.447 10.1307 37.759 10.64 38.0874 11.1787C38.4157 11.7174 38.7247 12.2268 39.0143 12.7067C39.3028 13.1867 39.6313 13.7289 40 14.3333H34.9531C34.6375 13.8207 34.3515 13.3574 34.0952 12.9433C33.8389 12.5293 33.5665 12.0823 33.2778 11.6026C32.9884 11.1233 32.7024 10.6566 32.4196 10.2027C32.1368 9.74879 31.8938 9.35121 31.6905 9.0099C31.4863 8.66837 31.3449 8.43831 31.2663 8.31979C31.0713 8.02568 30.9559 7.68601 30.9315 7.33397C30.951 6.99609 31.0597 6.66947 31.2466 6.3873C31.3254 6.25585 31.47 6.0225 31.6803 5.68732C31.8906 5.35214 32.137 4.95456 32.4196 4.49451C32.7021 4.03446 32.9882 3.56454 33.2778 3.08477C33.5674 2.605 33.8398 2.15477 34.0952 1.73416C34.3519 1.31398 34.6379 0.84735 34.9531 0.334284H40L36.0962 6.70275C35.9754 6.89183 35.9073 7.10974 35.8991 7.33397C35.9121 7.56938 35.9942 7.7957 36.1353 7.98461H36.136Z" fill="white"/>
<path d="M10.616 20.345H8.15399L2.80337 26.5098H2.06807V20.345H0V34.3289H2.06807V28.0066H2.13763L7.9574 34.3487L10.7739 34.3286L4.09703 27.3957L10.616 20.345Z" fill="#EFB4ED"/>
<path d="M15.4512 32.8809C15.3826 32.8884 15.3136 32.8919 15.2445 32.8911C15.0962 32.8955 14.9486 32.8685 14.8115 32.812C14.6921 32.7589 14.5898 32.6737 14.5161 32.5658C14.4305 32.4383 14.3734 32.2939 14.3486 32.1423C14.3132 31.9409 14.2967 31.7366 14.2994 31.5321V19.4586L12.2904 19.7541V32.4184C12.2821 32.7504 12.3355 33.081 12.448 33.3934C12.5424 33.6472 12.6981 33.8738 12.901 34.0532C13.1032 34.2265 13.3423 34.3511 13.6002 34.4175C13.8864 34.4917 14.181 34.5282 14.4766 34.5259C14.6345 34.5259 14.7852 34.5193 14.9297 34.5059C15.0741 34.4924 15.2153 34.473 15.3531 34.4471C15.491 34.4211 15.6059 34.3946 15.6978 34.3683L15.8947 32.812C15.816 32.8256 15.7372 32.8387 15.6584 32.8514C15.5796 32.8641 15.5105 32.8739 15.4512 32.8809Z" fill="#EFB4ED"/>
<path d="M26.4317 33.0881C26.2877 33.1013 26.1427 33.0795 26.0089 33.0246C25.8752 32.9697 25.7567 32.8832 25.6635 32.7727C25.4808 32.4572 25.4049 32.0912 25.4469 31.7291L25.4862 27.6718C25.4906 27.2463 25.4376 26.8222 25.3287 26.4109C25.2329 26.0505 25.0728 25.7103 24.856 25.4068C24.637 25.1099 24.3586 24.8617 24.0386 24.6781C23.6671 24.4668 23.2651 24.314 22.847 24.225C22.3359 24.1146 21.814 24.0617 21.291 24.0674C20.8763 24.0673 20.462 24.0936 20.0506 24.1462C19.6617 24.1951 19.2765 24.2707 18.898 24.3724C18.5471 24.4678 18.2019 24.583 17.864 24.7174L17.6277 26.3916C17.9559 26.273 18.2678 26.1745 18.5632 26.0961C18.8587 26.0178 19.1442 25.9521 19.42 25.8992C19.6901 25.8474 19.963 25.8112 20.2373 25.7908C20.5063 25.7711 20.7723 25.7613 21.0354 25.7613C21.4369 25.7527 21.8377 25.7991 22.2266 25.8992C22.5105 25.9702 22.7715 26.1126 22.9849 26.3128C23.1749 26.5075 23.3107 26.7483 23.3788 27.0116C23.4629 27.3364 23.5028 27.6711 23.4974 28.0066L23.495 28.501L21.1926 28.6566C20.4052 28.6786 19.6293 28.8524 18.9079 29.1687C18.3679 29.4049 17.9018 29.7825 17.5587 30.2618C17.2675 30.6881 17.1129 31.1931 17.1156 31.7094C17.1119 32.1938 17.2304 32.6712 17.4603 33.0976C17.7011 33.5359 18.0636 33.8952 18.5041 34.132C19.0414 34.4115 19.6419 34.5472 20.2472 34.5259C20.8144 34.539 21.379 34.4454 21.9115 34.2498C22.372 34.0696 22.7933 33.802 23.1523 33.462C23.2886 33.3312 23.4178 33.1934 23.5397 33.0491C23.578 33.2531 23.65 33.4492 23.753 33.6294C23.9286 33.9309 24.1985 34.1663 24.5212 34.2991C24.8778 34.4422 25.2596 34.5125 25.6438 34.5056C25.762 34.5056 25.8769 34.5026 25.9885 34.4957C26.0981 34.4894 26.2069 34.473 26.3135 34.4468C26.4185 34.4202 26.5134 34.3972 26.5991 34.3779C26.6762 34.3603 26.7518 34.3373 26.8256 34.3089L27.0422 32.989C26.9335 33.0265 26.8213 33.0529 26.7074 33.0681C26.616 33.0804 26.5239 33.0871 26.4317 33.0881ZM23.1523 32.2018C22.9388 32.3705 22.7076 32.5156 22.463 32.6348C22.2193 32.7535 21.961 32.8397 21.6948 32.8911C21.4191 32.9443 21.1389 32.9707 20.8581 32.9699C20.537 32.9791 20.2177 32.9187 19.9222 32.7927C19.6819 32.6881 19.4793 32.5128 19.3412 32.2901C19.2048 32.054 19.1366 31.7847 19.1442 31.5121C19.1252 31.1839 19.2153 30.8586 19.4003 30.5868C19.6146 30.3364 19.9052 30.1634 20.2275 30.0944C20.7306 29.9758 21.2471 29.9228 21.7638 29.9368H23.4885L23.4796 31.8916C23.3796 32.0042 23.2702 32.108 23.1523 32.2018Z" fill="#EFB4ED"/>
<path d="M35.1368 29.7989C34.9352 29.5851 34.7029 29.4024 34.4475 29.257C34.1831 29.1058 33.9064 28.9773 33.6203 28.8729C33.4102 28.8072 33.2034 28.7383 32.9999 28.6661C32.7964 28.5939 32.5928 28.5282 32.3893 28.4691C32.1853 28.41 31.9884 28.3476 31.7984 28.282C31.6198 28.2213 31.4455 28.1489 31.2765 28.065C31.1147 27.979 30.9599 27.8802 30.8136 27.7696C30.6786 27.6679 30.5648 27.5406 30.4788 27.3951C30.3919 27.2457 30.3476 27.0754 30.3505 26.9027C30.3454 26.7129 30.3933 26.5254 30.489 26.3613C30.5918 26.2001 30.7342 26.0678 30.9026 25.9773C31.1087 25.8641 31.3314 25.7842 31.5624 25.7406C31.8512 25.6853 32.1448 25.659 32.4388 25.6621C32.5829 25.6621 32.7409 25.6691 32.9113 25.6819C33.0816 25.6947 33.2691 25.718 33.4729 25.7508C33.6768 25.7836 33.8793 25.8263 34.0834 25.8785C34.2876 25.9307 34.4938 25.9904 34.7039 26.0557C34.8984 26.1159 35.089 26.1882 35.2744 26.2724L35.4129 24.6774C35.1632 24.5723 34.917 24.4803 34.6743 24.4013C34.4317 24.3229 34.1852 24.2572 33.9357 24.2043C33.6921 24.1527 33.4454 24.1165 33.1971 24.096C32.9536 24.0763 32.7146 24.0665 32.4779 24.0665C31.9339 24.061 31.3913 24.1238 30.8629 24.2536C30.4112 24.3634 29.9815 24.55 29.5928 24.8051C29.2401 25.0381 28.952 25.3565 28.7554 25.7307C28.5499 26.1431 28.4484 26.5996 28.46 27.0602C28.4541 27.392 28.5074 27.7222 28.6176 28.0352C28.7114 28.2976 28.8514 28.5411 29.0312 28.7541C29.2064 28.955 29.4086 29.1306 29.6319 29.276C29.8645 29.4286 30.112 29.5573 30.3705 29.66C30.5145 29.7126 30.6656 29.765 30.8238 29.8173C30.9814 29.8701 31.1354 29.9194 31.2867 29.965C31.438 30.0106 31.5847 30.0573 31.7298 30.1029C31.8749 30.1485 32.0151 30.1951 32.153 30.2407C32.2908 30.2864 32.4254 30.3297 32.5567 30.3691C32.733 30.4314 32.9043 30.507 33.0692 30.5953C33.2136 30.672 33.349 30.7646 33.4729 30.8713C33.5818 30.9668 33.6691 31.0843 33.729 31.216C33.7888 31.3524 33.8189 31.5 33.8173 31.649C33.8243 31.7947 33.7988 31.9401 33.7426 32.0747C33.6864 32.2093 33.6009 32.3296 33.4923 32.427C33.2485 32.6309 32.9572 32.7698 32.6454 32.8311C32.2801 32.9116 31.907 32.9511 31.5329 32.9489C31.2989 32.9474 31.0653 32.9311 30.8334 32.9C30.5775 32.8672 30.3085 32.8212 30.0262 32.7621C29.7439 32.7031 29.4549 32.6308 29.1595 32.5455C28.8638 32.4601 28.5651 32.3649 28.2634 32.2599L28.3418 33.934C28.683 34.0524 28.9949 34.1476 29.2774 34.2196C29.5599 34.2916 29.8292 34.3541 30.0852 34.4071C30.3318 34.4582 30.5819 34.4912 30.8334 34.5056C31.0763 34.5191 31.3225 34.5258 31.5719 34.5255C32.1214 34.5284 32.6696 34.4721 33.207 34.3578C33.6801 34.2619 34.1331 34.0853 34.5463 33.8359C34.9187 33.6085 35.2271 33.29 35.4425 32.9105C35.6678 32.4936 35.7797 32.0249 35.7668 31.5512C35.7752 31.2057 35.7185 30.8617 35.5997 30.5372C35.4938 30.2639 35.3367 30.0133 35.1368 29.7989Z" fill="#EFB4ED"/>
<path d="M44.3739 29.7989C44.1722 29.5851 43.9398 29.4025 43.6845 29.257C43.42 29.1057 43.1432 28.9772 42.8569 28.8729C42.6468 28.8072 42.4401 28.7383 42.2366 28.6661C42.033 28.5939 41.8295 28.5282 41.6259 28.4691C41.4224 28.41 41.2255 28.3477 41.0351 28.282C40.8565 28.2213 40.6822 28.1488 40.5132 28.0651C40.3513 27.979 40.1965 27.8802 40.0503 27.7696C39.9153 27.6679 39.8017 27.5407 39.7158 27.3951C39.6288 27.2458 39.5844 27.0755 39.5875 26.9027C39.5822 26.7129 39.6301 26.5254 39.7256 26.3614C39.8282 26.1999 39.9707 26.0676 40.1392 25.9773C40.3453 25.8641 40.568 25.7842 40.799 25.7406C41.0877 25.6853 41.3813 25.6591 41.6752 25.6621C41.8197 25.6621 41.9772 25.6691 42.1482 25.6819C42.3193 25.6947 42.5057 25.718 42.7095 25.7508C42.9134 25.7836 43.1163 25.8263 43.3198 25.8785C43.5234 25.9307 43.7301 25.9904 43.9405 26.0557C44.1352 26.1159 44.3259 26.1882 44.5114 26.2724L44.6496 24.6774C44.3999 24.5723 44.1537 24.4803 43.911 24.4013C43.6684 24.3229 43.4218 24.2571 43.1724 24.2043C42.9287 24.1527 42.682 24.1165 42.4338 24.096C42.1904 24.0763 41.9508 24.0665 41.7149 24.0665C41.1708 24.0609 40.6283 24.1238 40.0999 24.2536C39.648 24.3633 39.2182 24.5499 38.8295 24.8051C38.4768 25.0381 38.1889 25.3565 37.9925 25.7308C37.7865 26.143 37.685 26.5996 37.697 27.0602C37.691 27.392 37.7445 27.7222 37.8549 28.0352C37.9483 28.2978 38.0884 28.5413 38.2685 28.7541C38.4435 28.9551 38.6457 29.1307 38.8692 29.276C39.1018 29.4287 39.3493 29.5573 39.6078 29.66C39.7518 29.7126 39.9028 29.765 40.0608 29.8173C40.2183 29.8701 40.3723 29.9194 40.5237 29.965C40.675 30.0107 40.822 30.0573 40.9665 30.1029C41.1109 30.1485 41.2521 30.1951 41.3899 30.2408C41.5278 30.2864 41.6624 30.3297 41.794 30.3691C41.9701 30.4314 42.1412 30.507 42.3058 30.5953C42.4505 30.6718 42.586 30.7644 42.7099 30.8714C42.8188 30.9666 42.906 31.0842 42.9656 31.216C43.026 31.3523 43.0563 31.5 43.0546 31.649C43.0616 31.7947 43.0361 31.9401 42.9798 32.0747C42.9235 32.2093 42.8379 32.3297 42.7293 32.427C42.4855 32.6309 42.1942 32.7699 41.8823 32.8311C41.517 32.9116 41.1439 32.9511 40.7699 32.9489C40.536 32.9474 40.3024 32.9311 40.0706 32.9C39.8146 32.8672 39.5454 32.8212 39.2631 32.7621C38.9808 32.7031 38.6919 32.6308 38.3962 32.5455C38.101 32.4601 37.8024 32.3649 37.5004 32.2599L37.5792 33.934C37.9201 34.0524 38.2319 34.1476 38.5147 34.2196C38.7974 34.2916 39.0666 34.3541 39.3222 34.4071C39.5689 34.4582 39.8191 34.4912 40.0706 34.5056C40.3133 34.5191 40.5595 34.5258 40.8092 34.5256C41.3585 34.5284 41.9064 34.4722 42.4436 34.3578C42.9167 34.262 43.3698 34.0854 43.783 33.8359C44.1555 33.6086 44.4641 33.2901 44.6794 32.9105C44.9049 32.4937 45.0169 32.0249 45.0041 31.5512C45.0124 31.2057 44.9556 30.8617 44.8367 30.5372C44.7309 30.2638 44.5738 30.0132 44.3739 29.7989Z" fill="#EFB4ED"/>
<path d="M49.1107 19.9608C48.9063 19.8359 48.6709 19.7711 48.4315 19.7738C48.1889 19.7719 47.9505 19.8366 47.7422 19.9608C47.5368 20.081 47.3643 20.2502 47.2402 20.4532C47.115 20.6575 47.05 20.8929 47.0528 21.1324C47.0509 21.3751 47.1157 21.6135 47.2402 21.8218C47.3606 22.0277 47.5339 22.1978 47.7422 22.3142C47.9526 22.4323 48.1902 22.4934 48.4315 22.4915C48.6696 22.4941 48.9042 22.4329 49.1107 22.3142C49.3132 22.1968 49.4801 22.0266 49.5935 21.8218C49.7116 21.6114 49.7728 21.3737 49.7708 21.1324C49.7735 20.8943 49.7123 20.6597 49.5935 20.4532C49.4764 20.2512 49.3104 20.0819 49.1107 19.9608Z" fill="#EFB4ED"/>
<path d="M47.3873 34.3286H49.3963V24.0869L47.3873 24.3823V34.3286Z" fill="#EFB4ED"/>
<path d="M58.6926 29.7989C58.491 29.585 58.2587 29.4024 58.0033 29.257C57.7388 29.1057 57.462 28.9772 57.1758 28.8729C56.9659 28.8072 56.7591 28.7383 56.5556 28.6661C56.3521 28.5939 56.1485 28.5282 55.9448 28.4691C55.7413 28.41 55.5443 28.3477 55.3539 28.282C55.1754 28.2213 55.0011 28.1488 54.8322 28.0651C54.6702 27.9791 54.5154 27.8803 54.3691 27.7696C54.2341 27.6679 54.1205 27.5406 54.0346 27.3951C53.9476 27.2458 53.9032 27.0755 53.9063 26.9027C53.9011 26.7129 53.9489 26.5254 54.0444 26.3614C54.1471 26.1999 54.2895 26.0677 54.4581 25.9773C54.6641 25.8641 54.8868 25.7842 55.1179 25.7406C55.4067 25.6853 55.7003 25.6591 55.9943 25.6622C56.1384 25.6622 56.2963 25.6691 56.467 25.6819C56.6377 25.6947 56.8245 25.718 57.0284 25.7508C57.2322 25.7836 57.4351 25.8263 57.6386 25.8785C57.8421 25.9307 58.0489 25.9904 58.2594 26.0557C58.454 26.1159 58.6447 26.1883 58.8302 26.2724L58.9684 24.6774C58.7187 24.5723 58.4725 24.4803 58.2298 24.4013C57.9872 24.3229 57.7407 24.2571 57.4912 24.2043C57.2475 24.1527 57.0008 24.1165 56.7526 24.096C56.5095 24.0763 56.2699 24.0665 56.0337 24.0665C55.4897 24.0609 54.947 24.1238 54.4186 24.2536C53.9667 24.3633 53.5371 24.5499 53.1483 24.8051C52.7957 25.0381 52.5077 25.3565 52.3112 25.7308C52.1053 26.143 52.0039 26.5996 52.0158 27.0602C52.0098 27.392 52.0632 27.7222 52.1737 28.0352C52.2671 28.2978 52.4072 28.5413 52.5873 28.7541C52.7624 28.955 52.9646 29.1307 53.1881 29.276C53.4206 29.4287 53.6681 29.5573 53.9266 29.66C54.0706 29.7126 54.2216 29.765 54.3796 29.8173C54.5376 29.8696 54.6919 29.9188 54.8424 29.965C54.993 30.0114 55.1406 30.0574 55.2853 30.1029C55.4299 30.1484 55.5711 30.1944 55.7088 30.2408C55.8466 30.2869 55.9813 30.3297 56.1128 30.3691C56.289 30.4314 56.4602 30.507 56.6249 30.5953C56.7695 30.6719 56.9049 30.7645 57.0287 30.8714C57.1376 30.9666 57.2249 31.0842 57.2844 31.216C57.3448 31.3523 57.3751 31.5 57.3734 31.649C57.3804 31.7947 57.3548 31.9401 57.2986 32.0747C57.2424 32.2093 57.1569 32.3296 57.0483 32.427C56.8044 32.6308 56.5131 32.7698 56.2012 32.8311C55.8359 32.9116 55.4627 32.9511 55.0886 32.9489C54.8548 32.9474 54.6213 32.9311 54.3895 32.9C54.1334 32.8672 53.8643 32.8212 53.5819 32.7621C53.2996 32.7031 53.0106 32.6308 52.715 32.5455C52.42 32.4601 52.1214 32.3649 51.8191 32.2599L51.8979 33.934C52.2391 34.0524 52.551 34.1476 52.8335 34.2196C53.116 34.2916 53.3852 34.3541 53.641 34.4071C53.8877 34.4582 54.1379 34.4912 54.3895 34.5056C54.6322 34.5191 54.8783 34.5258 55.128 34.5256C55.6773 34.5284 56.2253 34.4722 56.7625 34.3578C57.2356 34.2619 57.6888 34.0854 58.1021 33.8359C58.4745 33.6085 58.7829 33.29 58.9983 32.9105C59.2237 32.4937 59.3357 32.0249 59.3229 31.5512C59.3312 31.2057 59.2744 30.8617 59.1555 30.5372C59.0497 30.2638 58.8926 30.0132 58.6926 29.7989Z" fill="#EFB4ED"/>
<path d="M67.774 34.3286H70.3739L65.5963 28.9451L70.2754 24.2838H67.8134L64.4431 27.9866H63.7167V19.4584L61.7077 19.7538V34.3286H63.7167V29.5032H63.7495L67.774 34.3286Z" fill="#EFB4ED"/>
</svg>

<svg xmlns="http://www.w3.org/2000/svg" viewBox="0 0 71 35"><path fill="#fff" d="M0 14.333V.335h4.593v13.998H0Zm10.843-11.77 2.641 11.77H8.457L5.303.335h2.82a2.655 2.655 0 0 1 1.764.64c.491.404.829.964.956 1.588Zm3.331 11.77V.335h4.594v13.998h-4.594Zm8.063-8.675a2.738 2.738 0 0 1-1.409-.375 2.778 2.778 0 0 1-1.015-1.015 2.735 2.735 0 0 1-.375-1.41 2.685 2.685 0 0 1 .375-1.4A2.812 2.812 0 0 1 23.637.454c.415.244.761.59 1.005 1.005.251.424.38.908.375 1.4.005.496-.125.983-.375 1.41a2.8 2.8 0 0 1-1.005 1.015c-.424.251-.908.38-1.4.375Zm3.49 8.675V.335h4.594v13.998h-4.594Zm10.409-6.348c.013.013.111.174.296.483.184.308.424.702.72 1.183a386.846 386.846 0 0 1 1.862 3.056c.289.48.617 1.022.986 1.626h-5.047l-.858-1.39c-.256-.414-.529-.86-.817-1.34-.29-.48-.576-.946-.858-1.4a71.148 71.148 0 0 1-.73-1.193 21.112 21.112 0 0 0-.424-.69 2.04 2.04 0 0 1-.334-.986c.019-.338.128-.665.315-.947.078-.131.223-.364.433-.7a216.7 216.7 0 0 0 1.598-2.603l.817-1.35.858-1.4H40l-3.904 6.369c-.12.189-.189.407-.197.631.013.235.095.462.236.65h.001Z"/><path fill="#EFB4ED" d="M10.616 20.345H8.154l-5.35 6.165h-.736v-6.165H0v13.984h2.068v-6.322h.07l5.82 6.342 2.816-.02-6.677-6.933 6.519-7.051ZM15.451 32.88a1.719 1.719 0 0 1-.207.011 1.055 1.055 0 0 1-.432-.079.704.704 0 0 1-.296-.246 1.07 1.07 0 0 1-.167-.424 3.275 3.275 0 0 1-.05-.61V19.46l-2.009.295v12.664a2.68 2.68 0 0 0 .158.975c.094.254.25.48.453.66.202.174.441.298.7.364.285.075.58.111.876.109a4.906 4.906 0 0 0 .876-.079c.138-.026.253-.052.345-.079l.197-1.556-.237.04a5.019 5.019 0 0 1-.207.029ZM26.432 33.088a.898.898 0 0 1-.768-.315 1.693 1.693 0 0 1-.217-1.044l.04-4.057a4.735 4.735 0 0 0-.158-1.261c-.096-.36-.256-.7-.473-1.004a2.662 2.662 0 0 0-.817-.729 4.164 4.164 0 0 0-1.192-.453 7.008 7.008 0 0 0-1.556-.158c-.415 0-.829.027-1.24.08a8.556 8.556 0 0 0-1.153.225c-.35.096-.696.211-1.034.345l-.236 1.675a11.268 11.268 0 0 1 1.792-.493c.27-.052.543-.088.817-.108.27-.02.535-.03.798-.03a4.4 4.4 0 0 1 1.192.138c.284.071.544.214.758.414.19.195.326.435.394.699.084.324.124.66.118.995l-.002.494-2.302.156a6.115 6.115 0 0 0-2.285.512 3.271 3.271 0 0 0-1.35 1.093 2.543 2.543 0 0 0-.442 1.447c-.004.485.114.962.344 1.389.241.438.604.797 1.044 1.034a3.51 3.51 0 0 0 1.743.394 4.524 4.524 0 0 0 1.665-.276 3.84 3.84 0 0 0 1.24-.788c.137-.13.266-.269.388-.413.038.204.11.4.213.58.176.302.445.537.768.67.357.143.739.214 1.123.207.118 0 .233-.003.345-.01.11-.007.218-.023.325-.05.105-.026.2-.049.285-.068.077-.018.153-.04.227-.07l.216-1.319c-.109.038-.22.064-.335.08a2.25 2.25 0 0 1-.275.02Zm-3.28-.886a3.79 3.79 0 0 1-.689.433 3.094 3.094 0 0 1-.768.256 4.35 4.35 0 0 1-.837.079c-.321.01-.64-.051-.936-.177a1.289 1.289 0 0 1-.58-.503 1.473 1.473 0 0 1-.198-.778 1.491 1.491 0 0 1 .256-.925c.215-.25.505-.424.828-.493a5.99 5.99 0 0 1 1.536-.157h1.724l-.008 1.955c-.1.112-.21.216-.328.31ZM35.137 29.799a2.961 2.961 0 0 0-.69-.542 5.384 5.384 0 0 0-.827-.384c-.21-.066-.417-.135-.62-.207a11.008 11.008 0 0 0-.61-.197c-.205-.059-.402-.121-.592-.187a4.246 4.246 0 0 1-.521-.217 3.462 3.462 0 0 1-.463-.295 1.292 1.292 0 0 1-.335-.375.948.948 0 0 1-.128-.492 1.02 1.02 0 0 1 .138-.542c.103-.16.245-.293.414-.384a2.23 2.23 0 0 1 .66-.236c.288-.056.582-.082.876-.079a6.37 6.37 0 0 1 1.034.089c.204.033.406.075.61.127.205.053.41.112.62.178.195.06.386.132.571.216l.139-1.595a9.424 9.424 0 0 0-.739-.276 7.378 7.378 0 0 0-.738-.197 5.912 5.912 0 0 0-.739-.108 8.903 8.903 0 0 0-.72-.03 6.495 6.495 0 0 0-1.614.188c-.452.11-.881.296-1.27.551-.353.233-.641.552-.838.926a2.822 2.822 0 0 0-.295 1.33c-.006.331.047.661.158.974.093.263.233.506.413.72.175.2.378.376.6.521.233.153.481.281.74.384.144.053.295.105.453.157.157.053.311.102.463.148l.443.138c.145.045.285.092.423.138.138.045.272.089.404.128.176.062.347.138.512.226.145.077.28.17.404.276.109.096.196.213.256.345.06.136.09.284.088.433a.982.982 0 0 1-.325.778 1.887 1.887 0 0 1-.847.404c-.365.08-.738.12-1.112.118a5.529 5.529 0 0 1-.7-.049 10.403 10.403 0 0 1-.807-.138 11.91 11.91 0 0 1-.866-.217c-.296-.085-.595-.18-.897-.285l.079 1.674c.341.118.653.214.935.286.283.072.552.134.808.187.247.051.497.084.748.099.243.013.49.02.739.02a7.665 7.665 0 0 0 1.635-.168 4.21 4.21 0 0 0 1.34-.522c.372-.227.68-.546.896-.925.225-.417.337-.886.324-1.36a2.755 2.755 0 0 0-.167-1.014 2.303 2.303 0 0 0-.463-.738ZM44.374 29.799a2.968 2.968 0 0 0-.69-.542 5.366 5.366 0 0 0-.827-.384c-.21-.066-.417-.135-.62-.207a11.011 11.011 0 0 0-.611-.197c-.204-.059-.4-.121-.59-.187a4.277 4.277 0 0 1-.523-.217 3.46 3.46 0 0 1-.463-.295 1.288 1.288 0 0 1-.334-.375.944.944 0 0 1-.129-.492 1.02 1.02 0 0 1 .139-.542c.102-.161.245-.293.413-.384a2.23 2.23 0 0 1 .66-.236c.289-.056.582-.082.876-.079a6.386 6.386 0 0 1 1.035.089c.203.033.406.075.61.127.203.053.41.112.62.178.195.06.386.132.571.216l.139-1.595a9.424 9.424 0 0 0-.739-.276 7.359 7.359 0 0 0-.739-.197 5.917 5.917 0 0 0-.738-.108 8.909 8.909 0 0 0-.72-.03 6.49 6.49 0 0 0-1.614.188 4.06 4.06 0 0 0-1.27.551c-.353.233-.641.552-.837.926a2.81 2.81 0 0 0-.296 1.33 2.78 2.78 0 0 0 .158.974c.093.263.233.506.414.72.175.2.377.376.6.521.233.153.48.281.739.384.144.053.295.105.453.157.157.053.311.102.463.148l.443.138c.144.045.285.092.423.138.138.045.272.089.404.128.176.062.347.138.512.226.145.077.28.17.404.276a1.011 1.011 0 0 1 .345.778.981.981 0 0 1-.326.778 1.886 1.886 0 0 1-.847.404c-.365.08-.738.12-1.112.118a5.526 5.526 0 0 1-.7-.049 10.401 10.401 0 0 1-.807-.138 11.953 11.953 0 0 1-.867-.217c-.295-.085-.594-.18-.896-.285l.08 1.674c.34.118.652.214.935.286.282.072.552.134.807.187.247.051.497.084.749.099.242.013.489.02.738.02a7.659 7.659 0 0 0 1.635-.168 4.206 4.206 0 0 0 1.339-.522c.373-.227.681-.546.896-.925.226-.417.338-.886.325-1.36a2.755 2.755 0 0 0-.167-1.014 2.298 2.298 0 0 0-.463-.738ZM49.11 19.96a1.275 1.275 0 0 0-.678-.186 1.326 1.326 0 0 0-.69.187c-.205.12-.378.29-.502.492-.125.204-.19.44-.187.68-.002.242.063.48.187.689.12.206.294.376.502.492.21.118.448.18.69.177.238.003.472-.058.679-.177.202-.117.37-.287.483-.492.118-.21.179-.448.177-.69a1.332 1.332 0 0 0-.178-.679 1.393 1.393 0 0 0-.482-.492ZM47.387 34.329h2.01V24.087l-2.01.295v9.947ZM58.693 29.799a2.958 2.958 0 0 0-.69-.542 5.369 5.369 0 0 0-.827-.384c-.21-.066-.417-.135-.62-.207a10.96 10.96 0 0 0-.611-.197c-.204-.059-.4-.121-.591-.187a4.274 4.274 0 0 1-.522-.217 3.443 3.443 0 0 1-.463-.295 1.29 1.29 0 0 1-.334-.375.944.944 0 0 1-.129-.492 1.02 1.02 0 0 1 .138-.542c.103-.161.245-.293.414-.384.206-.113.429-.193.66-.236.289-.056.582-.082.876-.079a6.378 6.378 0 0 1 1.034.089c.204.033.407.075.61.127.204.053.41.112.621.178.195.06.386.132.571.216l.138-1.595a9.424 9.424 0 0 0-.738-.276 7.351 7.351 0 0 0-.739-.197 5.917 5.917 0 0 0-.738-.108 8.898 8.898 0 0 0-.72-.03 6.49 6.49 0 0 0-1.614.188 4.06 4.06 0 0 0-1.27.551c-.353.233-.641.552-.838.926a2.813 2.813 0 0 0-.295 1.33c-.006.331.047.661.158.974.093.263.233.506.413.72.175.2.378.376.601.521.233.153.48.281.739.384a22.275 22.275 0 0 0 .916.305l.442.138c.145.045.286.091.424.138.138.046.272.089.404.128.176.062.347.138.512.226.145.077.28.17.404.276a1.01 1.01 0 0 1 .344.778.982.982 0 0 1-.325.778 1.89 1.89 0 0 1-.847.404c-.365.08-.738.12-1.112.118a5.524 5.524 0 0 1-.7-.049 10.404 10.404 0 0 1-.807-.138 11.94 11.94 0 0 1-.867-.217 17.91 17.91 0 0 1-.896-.285l.079 1.674c.341.118.653.214.935.286.283.072.552.134.808.187.247.051.497.084.748.099.243.013.49.02.739.02a7.66 7.66 0 0 0 1.635-.168 4.21 4.21 0 0 0 1.34-.522c.371-.227.68-.546.895-.925.226-.417.338-.886.325-1.36a2.755 2.755 0 0 0-.167-1.014 2.297 2.297 0 0 0-.463-.738ZM67.774 34.329h2.6l-4.778-5.384 4.68-4.661h-2.463l-3.37 3.703h-.726v-8.529l-2.01.296v14.575h2.01v-4.826h.032l4.025 4.826Z"/></svg>
